!!!OTL: Der betrogene Ehemann (191), S. 415f
!!!id: T0370
**kern
*clefG2
*k[]
*C:
{8g
=1
8g
8g
8a
8a
=2
8g
8g
4e
=3
8f
8r
8d
8r
=4
4e}
8r
=5
{8g
=6
8g
8g
8a
8a
=7
8g
8g
4e
=8
8f
8r
8d
8r
=9
4e}
8r
=10
{8g
=11
8d
8d
8d
8d
=12
8d
8b
8b}
=13
{8b
=14
8dd
8cc
8b
8a
=15
4g}
8r
=16
{8f
=17
8e
8e
8e
8e
=18
8f
8f
8f}
=19
{8f
=20
8g
8g
8g
8f
=21
4e}
8r
=22
{8g
=23
8g
8g
8g
8g
=24
8a
8a
8a}
=25
{8a
=26
8b
8b
8ee
8dd
=27
4cc}
4r
=28
{4g
8f
16e
16g
=29
4g}
4r
=30
{8g
8f
8f
8f
=31
8a
8g
8g}
=32
{16g
16g
=33
8g
8f
8f
8f
=34
8a
8g
4g}
=35
{4e
8e
8e
=36
8e
8g
8g}
=37
{16g
16g
=38
8g
8f
8f
8f
=39
4e}
8r
=40
{8g
=41
4g
8e
8g
=42
4g
8e}
=43
{8cc
=44
8.b
16a
8g
8f
=45
4e}
8r
=46
{8e
=47
16e
16e
8e
8e
16e
16e
=48
8e
8g
8g}
=49
{8g
=50
8g
8f
8f
8f
=51
8a
8a
8g}
=52
{8e
=53
16e
16e
8e
8e
16e
16e
=54
8e
8g
8g}
=55
{8g
=56
8g
8f
8f
8f
=57
4e}
8r
==
*-
!!!minrhy: 16
!!!meters: 2/4 ]  ZZ[19
!!!cut: Der betrogene Ehemann (191), S. 415f
!!!reg: Luxemburg
!!!trd: Singendes Volk, Esch-Alzette, 1937 posth.
!!!rhy1: X_  X_X_X_X_  X_X_X__  X_0X_0  X__0   (x2)
!!!rhy2: X_  X_X_X_X_  X_X_X__  X_0X_0  X__0
!!!key: T0370  16  C 2/4 ]  ZZ[19
!!!mod: HEPTATONIK IONISCH]  AMBITUS[9
!!!kad: 3375436+155553335553
!!!akz: 5543_5543_22_+25_34_53_56_7+1_55_56_56_33_53_55_73_33_56_33_53_
!!!fot: 'a__a__b__c__d__e__ds'f__g__gw_gw_bs"gw_h__cs'bs"gw_bs"gw_
!!!for: 'a__a__aw_aw_aw_aw_aw_aw_b__aw_aw_c__aw_d__e__f__aw_f__aw_
!!!fok: '\__\__Va_^d_-__\__/__^a_V__-__-__/__\__\__\__/__-__/__\__
!! PHRAS[VORWIEGEND AUFTAKTIG]
!!!fkt: Hochzeits-, Ehestandslied
!!!bem1: Boxhorn, hhh Maurer Holzheimer, 1899,
!!!bem2: mitgeteilt: hhh Heinrich Godefroid (Lehrer)
!! THILL; Mathias
!! PR[39] 2K[2] 2G[5] 3K[10] 3G[7] 4A[10] 4Ü[0] 5A[0] 6K[0] 6G[0]
!! 7K[0] 7G[0] 8A[0] MEHR[0] SI[34] ABS[41] SR[7] SP[27]
!! ST[15] 2k[0] 2g[7] 3k[12] 3g[2] 4d[0] 4ü[0] 5d[2] 6k[0] 6g[0]
!! 7k[0] 7g[0] 8d[2] mehr[0] si[27] dm[+7] sr[7] sp[20]
!! 1F[30] 2F[47] 3F[9] 4F[0] LF[0] 2P[14] 3P[0] 4P[0] TRI[0] DF[4] AB[43]
!! TF[0] U3K[0] U3[0] U4[0] U4Ü[0] U5[5] U6K[0] U6[0] U7K[0] U7[0]
!! N1[12] N2K[0] N2[2] N3K[0] N3[12] N4[7] N4Ü[0] N5[33] N6K[0] N6[21]
!!!n7k: 0] N7[0] O1[7] O2K[0] O2[0] O3K[0] O3[0] HÖ[0
